!!!!SEGMENT: pl-wn--sd-xvi-o-255_anonim--kancjonal-zamoyskich-modlitwa-krociuchna-ku-panu-bogu-rece-swoje-ku-tobie-wszechmogacy-panie.krn
!!!cenid: 15xx:813
!!!COM: Anonim
!!!COM-rismid: pe30004985
!!!CDT:
!!!CNT:
!!!GTL: Kancjonał Zamoyskich
!!!OTL: Modlitwa króciuchna ku Panu Bogu/Reçe swoje ku Tobie Wszechmogacy Panie
!!!PDT: 1558
!!!AGN:
!!!SMS-siglum: PL-Wn
!!!SMS-shelfmark: SD XVI.O.255
!!!SMS-shelfwork: G
!!!SMS-variant:
!!!SMS-altvar:
!!!NIFC-rismid: 990073194
!!!URL-scan: https://polona.pl/item/modlitwa-krociuchna-ku-panu-bogu-bysmy-w-powinnosci-krzescianskiey-zyli,MTE3MjE0MQ/3/#info:metadata
!!!ONB-nifc: UWAGA: proszę zapisywać tylko teksty występujące bezpośrednio pod nutami
!!!key: G:mix
**kern	**text	**kern	**text	**kern	**text	**kern	**text
*part4	*part4	*part3	*part3	*part2	*part2	*part1	*part1
*staff4	*staff4	*staff3	*staff3	*staff2	*staff2	*staff1	*staff1
*I"BASS.	*	*I"TENOR.	*	*I"ALT.	*	*I"DISCANT.	*
*I'B	*	*I'T	*	*I'A	*	*I'S	*
*Ibass	*	*Itenor	*	*Ialto	*	*Isoprn	*
*ICvox	*	*ICvox	*	*ICvox	*	*ICvox	*
*clefF4	*	*clefC4	*	*clefC3	*	*clefC1	*
*k[]	*	*k[]	*	*k[]	*	*k[]	*
*G:mix	*	*G:mix	*	*G:mix	*	*G:mix	*
*M2/1	*	*M2/1	*	*M2/1	*	*M2/1	*
*met(C|)	*	*met(C|)	*	*met(C|)	*	*met(C|)	*
=1-	=1-	=1-	=1-	=1-	=1-	=1-	=1-
1G	Rę-	1G	Rę-	1d	Rę-	1g	Rę-
2C/	-ce	2G/	-ce	2e\	-ce	2g/	-ce
2E\	ſwo-	2G/	ſwo-	2c\	ſwo-	2e/	ſwo-
=2-	=2-	=2-	=2-	=2-	=2-	=2-	=2-
2D/	-ie	2A/	-ie	2d\	-ie	2a\	-ie
2G\	ku	2B\	ku	2d\	ku	2g/	ku
1C	To-	1c	To-	1e	Tho-	1g	Tho-
=3-	=3-	=3-	=3-	=3-	=3-	=3-	=3-
1C	-bie	1c	-bie	1e	-bie	4g/	-bye
.	.	.	.	.	.	4f/	.
.	.	.	.	.	.	4e/	.
.	.	.	.	.	.	4d/	.
4C/	Wſſech-	1e	Wſſech-	1g	Wſſech-	2c/	.
4D/	.	.	.	.	.	.	.
4E/	.	.	.	.	.	2cc\	Wſſe-
4F\	.	.	.	.	.	.	.
=4-	=4-	=4-	=4-	=4-	=4-	=4-	=4-
2G\	.	2d\	-mo-	2g\	-mo-	2b\	-chmo-
*	*	*	*	*	*	*custos:a	*
!	!	!	!	!	!	!LO:LB:g=original	!
2A\	-mo-	1c	-gą-	2e\	-gą-	1a	-gą-
*custos:F	*	*	*	*	*	*	*
!LO:LB:g=original	!	!	!	!	!	!	!
2F\	-gą-	.	.	2f\	.	.	.
2G\	-cy	2B\	-cy	2d\	-cy	1g\	-ci
=5-	=5-	=5-	=5-	=5-	=5-	=5-	=5-
1D	Pá-	1A	Pá-	1d	pá-	.	.
.	.	.	.	.	.	2f/	pá-
*	*	*	*	*custos:B	*	*	*
!	!	!	!	!LO:LB:g=original	!	!	!
1GG	-nie/	1G	-nie/	1B	-nie/	1g	-nie/
*	*	*custos:G	*	*	*	*	*
!	!	!LO:LB:g=original	!	!	!	!	!
=6-	=6-	=6-	=6-	=6-	=6-	=6-	=6-
2C/	ʒ_na-	2G/	ʒ_na-	2c/	Ʒ_na-	2e/	ʒ_na-
2C/	-bo-	2G/	-boż-	2c/	-boż-	2e/	-bo-
2GG/	-żnem	2B/	-nem	2d\	-nem	2g/	-ʒnem
2BB/	ſer-	2d\	ſer-	2B/	ſer-	2g/	ſer-
=7-	=7-	=7-	=7-	=7-	=7-	=7-	=7-
2AA/	-cem	2c\	-ce(m)	2e\	-cem	2a\	-cem
2AA/	wʒno-	2c\	wʒno-	2e\	wʒno-	2a\	wʒno-
1C	-ſſę	1G	-ſſę	1c	-ſſę	2.g/	-ſſę
.	.	.	.	.	.	4e/	.
=8-	=8-	=8-	=8-	=8-	=8-	=8-	=8-
4FF/	wie-	1A	wie-	1.c	wie-	1f	.
4GG/	.	.	.	.	.	.	.
4AA/	.	.	.	.	.	.	.
4BB/	.	.	.	.	.	.	.
*custos:C	*	*	*	*	*	*custos:e	*
!LO:LB:g=original	!	!	!	!	!	!LO:LB:g=original	!
2C/	.	2G/	-cʒor	.	.	2e/	.
2D/	-cʒor	1F/	y	2A/	-cʒor	1d/	wie-
=9-	=9-	=9-	=9-	=9-	=9-	=9-	=9-
2BB-X/	y	.	.	2B-X/	y	.	.
2C/	w_ʒa-	2E/	w_ʒa-	2A/	w_ʒa-	1c	-cʒor
*	*	*	*	*custos:G	*	*	*
!	!	!	!	!LO:LB:g=original	!	!	!
1GG	-rá-	1D	-rá-	1G	-rá-	.	.
.	.	.	.	.	.	2B/	i
=10-	=10-	=10-	=10-	=10-	=10-	=10-	=10-
*lig	*	*	*	*	*	*	*
1G	-[nie]	1C	-nie/	2E/	-nie/	2c/	w_ʒá-
.	.	.	.	1e	Rá-	2cc\	-ra-
*	*	*custos:c	*	*	*	*	*
!	!	!LO:LB:g=original	!	!	!	!	!
1A	.	1c	Rá-	.	.	2a\	-ń[ie]
.	.	.	.	2f\	-cʒiſʒ	2cc\	rá-
*Xlig	*	*	*	*	*	*	*
=11-	=11-	=11-	=11-	=11-	=11-	=11-	=11-
2G\	Ra-	1d	-cʒiſʒ	2g\	ʒ_wi-	2b\	-cʒ[yż]
2D/	-[cʒiſʒ]	.	.	2.f\	-ſo-	2.a\	ʒ_wi-
2F\	ʒ_wi-	2c\	ʒ_wi-	.	.	.	.
.	.	.	.	4e\	.	4g/	.
2G\	-ſ[o-	2B\	-ſo-	4d\	.	1g\	-ſo-
.	.	.	.	4c\	.	.	.
=12-	=12-	=12-	=12-	=12-	=12-	=12-	=12-
1D	-ko-	1A	-ko-	1d	-ko-	.	.
.	.	.	.	.	.	2f/	-ko-
*	*	*	*	*	*	*custos:g	*
!	!	!	!	!	!	!LO:LB:g=original	!
1GG	-ſci]	1G	-ſci	1Bny	-ſci	1g	-ſci
=13-	=13-	=13-	=13-	=13-	=13-	=13-	=13-
2C/	wey-	2G/	wey-	2c/	wey-	2e/	wey-
2C/	-[rʒeć]	2G/	-rʒeć	2c/	-rʒeć	2e/	-rʒeć
*custos:GG	*	*	*	*custos:d	*	*	*
!LO:LB:g=original	!	!	!	!LO:LB:g=original	!	!	!
2GG/	ná	2B\	na	2d\	na	2g\	ná
*	*	*custos:d	*	*	*	*	*
!	!	!LO:LB:g=original	!	!	!	!	!
2BBny/	mie	2d\	mie	2B/	mie	2g\	mie
=14-	=14-	=14-	=14-	=14-	=14-	=14-	=14-
2AA/	ʒ_nie-	2c\	ʒ_nie-	2e\	ʒ_nie-	2a\	ʒ_nie-
2AA/	-ʒmier-	2c\	-ʒmier-	2e\	-ʒmier-	2a\	-ʒmier-
1C	-ney	1G	-ney	1c	-ney	2.g/	-ney
.	.	.	.	.	.	4e/	.
=15-	=15-	=15-	=15-	=15-	=15-	=15-	=15-
4FF/	ſwey	1A	ſwey	1.c	ſwey	1f	ſwey
4GG/	.	.	.	.	.	.	.
4AA/	.	.	.	.	.	.	.
4BB/	.	.	.	.	.	.	.
2C/	.	2G/	do-	.	.	2e/	do-
2D/	do-	1F/	-bro-	2A/	do-	1d/	-bro-
=16-	=16-	=16-	=16-	=16-	=16-	=16-	=16-
2BB-X/	-bro-	.	.	2B-X/	-bro-	.	.
2C/	-tli-	2E/	-tly-	2A/	-tli-	1c	-tly-
1GG	-wo-	1D	-wo-	1G	-wo-	.	.
.	.	.	.	.	.	2B/	-wo-
=17-	=17-	=17-	=17-	=17-	=17-	=17-	=17-
0Cl	-ſci.	0Cl	-ſcy.	0Gl	-ſci.	0cl	-ſcy.
==	==	==	==	==	==	==	==
*-	*-	*-	*-	*-	*-	*-	*-
!!!system-decoration: [(*)]
!!!RDF**kern: l = terminal long
!!!ENC: Mateusz Solarz
!!!END: 2022-04-26
!!!AIN: 1 alto 1 bass 1 soprn 1 tenor
!!!ENC: Andrzej Kubiczek
!!!END: 2022-05-08
